X:1
T:Title
%%score { ( 1 3 ) | ( 2 4 ) }
L:1/8
M:4/4
K:Eb
V:1 treble nm="Grand Piano"
V:3 treble 
V:2 bass 
V:4 bass 
V:1
 z4 z2[Q:1/4=100] E>F | G2 G>[FA] [GB]2 [Ac]2 | [GB]4 G2 E>F | G2 G>[FA] [GB]2 [EG]2 | [DF]6 E>F | %5
 G2 G>[FA] [GB]2 [Ac]2 | [GB]4 G2 E>F | G2 G>[CFA] [B,EG]2 [A,DF]2 |[M:3/4] [G,E]6 |[M:1/4] B>B | %10
[M:4/4] c6 z2 | B6 z2 | [GB]2 [GB]>[Ac] [GB]2 [EG]2 | [DF]6 E>F | G2 G>[FA] [GB]2 e2 | e4 c2 c>c | %16
 B2 B>A G2 [DF]2 |[M:3/4] E6 |] %18
V:2
 z4 z2 [E,G,]>[E,A,E] | [E,B,E]2 [E,B,E]>[E,B,] [E,E]2 [E,E]2 | [E,E]4 [E,B,E]2 [E,G,]>[E,A,E] | %3
 [E,B,E]2 [E,B,E]>[E,B,] [E,E]2 [E,B,]2 | [B,,B,]6 [E,G,]>[E,A,E] | %5
 [E,B,E]2 [E,B,E]>[E,B,] [E,E]2 [E,E]2 | [E,E]4 [E,B,E]2 [E,G,]>[E,A,E] | %7
 [E,B,E]2 [E,B,E]>A,, B,,2 B,,2 |[M:3/4] E,6 |[M:1/4][K:treble] G>G |[M:4/4] A6 z2 | %11
 G6[K:bass] z2 | [E,E]2 [E,E]>[E,E] [E,E]2 [E,B,]2 | [B,,B,]6 [E,G,]>[E,A,E] | %14
 [E,B,E]2 [E,B,E]>[E,B,] [E,E]2[K:treble] [G,B,E]2 | [A,CE]4 [A,E]2 [A,E]>[A,E] | %16
 [G,E]2 [G,E]>[A,CF][K:bass] [B,E]2 [B,,A,]2 |[M:3/4] [E,G,]6 |] %18
V:3
 x8 | x8 | x8 | x8 | x8 | x8 | x8 | x8 |[M:3/4] x6 |[M:1/4] x2 |[M:4/4] z2 E>E E2 e>c | %11
 z2 E>E E2 G>[FA] | x8 | x8 | x8 | x8 | x8 |[M:3/4] x6 |] %18
V:4
 x8 | x8 | x8 | x8 | x8 | x8 | x8 | x8 |[M:3/4] x6 |[M:1/4][K:treble] x2 | %10
[M:4/4] z2 A,>A, A,2 c>A | z2[K:bass] E,>E, E,2 [E,B,E]>[E,B,] | x8 | x8 | x6[K:treble] x2 | x8 | %16
 x4[K:bass] x4 |[M:3/4] x6 |] %18

